X: 27366
T: Mná Na hÉireann
R: barndance
M: 4/4
K: Gmajor
|G-ABc|g2 a~g|fdA2|ABc2|BcA2|~A4|G-ABc|g2 b~a|
gfdA-|AABc-|cBcd-|dcBd|G2 G g-|gaba-|ag2e|de2 d|
cBAg-|ga2g|fd2 e|cA2G|FG3||

